packages/foundations/assets/icons/functional/images/human/cigarette_disabled_14.svg

<svg width="14" height="14" viewBox="0 0 14 14" fill="none" xmlns="http://www.w3.org/2000/svg">
<g clip-path="url(#clip0_185_1120)">
<path fill-rule="evenodd" clip-rule="evenodd" d="M11.4718 1.56102C11.6903 1.34806 12.1435 1.36692 12.3958 1.61926C12.6482 1.8716 12.6785 2.30585 12.4541 2.54326L6.59067 8.41396L11.7226 8.41423C12.0117 8.41423 12.1287 8.44672 12.2428 8.50773C12.3568 8.56874 12.4464 8.65826 12.5074 8.77234C12.537 8.82772 12.5996 8.96758 12.6009 9.43666C12.6022 9.90574 12.5388 10.0974 12.5074 10.1561C12.4464 10.2702 12.3568 10.3597 12.2428 10.4207C12.1287 10.4817 12.0117 10.5142 11.7226 10.5142L4.49067 10.514L2.5299 12.4674C2.27909 12.6804 1.85823 12.6615 1.60589 12.4092C1.35355 12.1569 1.31912 11.7381 1.54766 11.4852L11.4718 1.56102ZM3.42107 8.41396L1.56887 10.2669C1.40087 10.0231 1.40087 9.96089 1.40087 9.46423C1.40087 8.96758 1.43335 8.88641 1.49436 8.77234C1.55537 8.65826 1.6449 8.56874 1.75897 8.50773C1.87304 8.44672 1.99002 8.41423 2.27909 8.41423L3.42107 8.41396ZM1.99657 1.57534C2.27857 1.3109 2.72156 1.32513 2.98601 1.60713C3.82914 2.50624 3.88757 3.55944 3.16457 4.53736L3.00887 4.74126C2.90318 4.89426 2.76933 5.14651 2.89557 5.51745C2.93084 5.62109 3.0159 5.7591 3.15075 5.93146C3.35534 6.21278 3.32319 6.60901 3.06288 6.85312C2.78087 7.11757 2.33789 7.10333 2.07344 6.82133C1.96507 6.70577 1.8305 6.52463 1.70734 6.28239C1.32646 5.53327 1.31902 4.68731 1.89034 3.89822L2.05237 3.68738C2.36445 3.26212 2.33424 2.95878 1.96478 2.56478C1.70033 2.28278 1.71456 1.83979 1.99657 1.57534Z" fill="#1A1C1F"/>
</g>
<defs>
<clipPath id="clip0_185_1120">
<rect width="14" height="14" fill="white"/>
</clipPath>
</defs>
</svg>

<svg xmlns="http://www.w3.org/2000/svg" width="14" height="14" fill="none"><g clip-path="url(#a)"><path fill="#1A1C1F" fill-rule="evenodd" d="M11.472 1.561c.218-.213.672-.194.924.058.252.253.282.687.058.924L6.591 8.414h5.132c.289 0 .406.033.52.094q.172.092.264.264c.03.056.093.196.094.665s-.062.66-.094.72a.64.64 0 0 1-.264.264c-.114.06-.231.093-.52.093H4.49L2.53 12.467c-.25.213-.672.194-.924-.058s-.287-.67-.058-.924zm-8.05 6.853-1.853 1.853C1.4 10.023 1.4 9.96 1.4 9.464c0-.496.032-.578.093-.692a.64.64 0 0 1 .265-.264c.114-.061.231-.094.52-.094zM1.996 1.575a.7.7 0 0 1 .989.032c.843.9.902 1.952.179 2.93l-.156.204a.81.81 0 0 0-.113.776q.053.156.255.414a.7.7 0 0 1-1.078.89 2.4 2.4 0 0 1-.366-.539c-.38-.749-.388-1.595.183-2.384l.162-.21c.312-.426.282-.73-.087-1.123a.7.7 0 0 1 .032-.99" clip-rule="evenodd"/></g><defs><clipPath id="a"><path fill="#fff" d="M0 0h14v14H0z"/></clipPath></defs></svg>
